X: 1
T: the Laird o' Cockpen
R: jig
M: 6/8
L: 1/8
K: Gm
D | "Gm"G>AG B2B | "F"A>FF F2A | "Gm"G>AG "Eb"g2g | "Bb"f<dd d2e | "Bb"fBd fed |
| "F"c>dB "D"A>Bc | "Gm"d>ed "D7"d2c | "Gm"B>GG G2 |: d | "Gm"g2g g>ab | "F"a<ff f2a |
| "Gm"gBd "Eb"g>ag | "Bb"fdB "D"A>Bc | "Gm"d>ed "D7"d2c | "Gm"B>GG G2 :|
